client/filepreviewer/pdfjs/web/images/toolbarButton-editorSignature.svg

<svg width="16" height="16" viewBox="0 0 16 16" fill="none" xmlns="http://www.w3.org/2000/svg">
<path d="M11.618 12.868L11.254 13.25H10.423C10.335 13.396 10.182 13.5 10 13.5H2C1.725 13.5 1.5 13.275 1.5 13V2C1.5 1.725 1.725 1.5 2 1.5H6.939L7 1.561V4.5C7 4.776 7.224 5 7.5 5H10.439L10.5 5.061V6.515L12 5.015V4.75C12 4.551 11.921 4.36 11.78 4.22L7.78 0.22C7.64 0.079 7.449 0 7.25 0H2C0.895 0 0 0.895 0 2V13C0 14.105 0.895 15 2 15H10C11.105 15 12 14.105 12 13V12.486L11.618 12.868Z" fill="black"/>
<path d="M13.836 4.946C13.962 4.819 14.13 4.75 14.309 4.75C14.487 4.75 14.655 4.819 14.782 4.945L15.805 5.969C15.931 6.094 16 6.262 16 6.441C16 6.621 15.931 6.789 15.805 6.915L14.9397 7.78033L12.9707 5.81134L13.836 4.946Z" fill="black"/>
<path d="M12.4403 6.34167L8.84 9.942C8.793 9.989 8.767 10.052 8.767 10.119V11.75C8.767 11.888 8.879 12 9.017 12H10.616L10.793 11.927L14.4093 8.31067L12.4403 6.34167Z" fill="black"/>
<path d="M7.517 9.84799V10.016H7.516V11.517C7.49168 11.4944 7.46584 11.4738 7.44007 11.4532C7.39062 11.4138 7.34148 11.3746 7.304 11.322L7.081 11.009C7.071 10.992 7.037 10.946 6.966 10.957C6.93 10.962 6.882 10.982 6.859 11.046C6.705 11.486 6.492 12.087 5.938 12.087H5.921C5.317 12.07 5.009 11.557 4.745 9.98599L4.382 10.954C4.146 11.585 3.535 12.009 2.861 12.009H2.5V10.759H2.861C3.017 10.759 3.158 10.661 3.213 10.515L3.883 8.72799C4.05 8.28199 4.494 8.01899 4.955 8.07299C5.434 8.12799 5.796 8.48599 5.858 8.96399C5.921 9.43699 5.98 9.80399 6.035 10.085C6.24 9.89099 6.504 9.76099 6.795 9.71999C7.048 9.68399 7.291 9.74599 7.517 9.84799Z" fill="black"/>
</svg>

<svg xmlns="http://www.w3.org/2000/svg" width="16" height="16" fill="none"><path fill="#000" d="m11.618 12.868-.364.382h-.831a.496.496 0 0 1-.423.25H2a.501.501 0 0 1-.5-.5V2c0-.275.225-.5.5-.5h4.939L7 1.561V4.5a.5.5 0 0 0 .5.5h2.939l.061.061v1.454l1.5-1.5V4.75a.747.747 0 0 0-.22-.53l-4-4A.747.747 0 0 0 7.25 0H2a2 2 0 0 0-2 2v11a2 2 0 0 0 2 2h8a2 2 0 0 0 2-2v-.514l-.382.382ZM13.836 4.946a.667.667 0 0 1 .946-.001l1.023 1.024a.66.66 0 0 1 .195.472c0 .18-.069.348-.195.474l-.865.865-1.97-1.969.866-.865Z"/><path fill="#000" d="m12.44 6.342-3.6 3.6a.249.249 0 0 0-.073.177v1.631c0 .138.112.25.25.25h1.599l.177-.073 3.616-3.616-1.969-1.97ZM7.517 9.848v.168h-.001v1.501c-.024-.023-.05-.043-.076-.064a.672.672 0 0 1-.136-.131l-.223-.313a.108.108 0 0 0-.115-.052.128.128 0 0 0-.107.089c-.154.44-.367 1.041-.921 1.041h-.017c-.604-.017-.912-.53-1.176-2.101l-.363.968a1.631 1.631 0 0 1-1.521 1.055H2.5v-1.25h.361a.378.378 0 0 0 .352-.244l.67-1.787a1.016 1.016 0 0 1 1.072-.655c.479.055.841.413.903.891.063.473.122.84.177 1.121.205-.194.469-.324.76-.365.253-.036.496.026.722.128Z"/></svg>
